X: 4
T:Michele's Mazurka
M:3/4
L:1/8
S:French Creek
K:D
e fg|a2ab ag|f2fa gf|e2 ef ga|b2a2fg|a2ab ag|f2fa gf|e2eg fe|!
|1d3:||2d4dc||:B2Bd cB|A3d cd|e2eg fe|f2d2dc|B2Bd cB|A3 d cd|!
e2eg fe|1d4dc:|2d4||
